icons/reverb-filled.svg

<svg width="256" height="256" viewBox="0 0 256 256" fill="none" xmlns="http://www.w3.org/2000/svg">
<rect width="256" height="256" rx="60" fill="#F25700" />
<path opacity="0.8" d="M128 151.703C114.838 151.703 104.522 141.01 104.522 128.178C104.522 115.347 115.194 104.653 128 104.653C141.162 104.653 151.478 115.347 151.478 128.178C151.478 141.01 141.162 151.703 128 151.703ZM128 114.634C120.53 114.634 114.838 120.693 114.838 127.822C114.838 134.95 120.885 141.01 128 141.01C135.47 141.01 141.162 134.95 141.162 127.822C141.162 120.693 135.47 114.634 128 114.634Z" fill="white"/>
<path opacity="0.6" d="M128 173.802C102.743 173.802 82.1107 153.129 82.1107 128.178C82.1107 103.228 102.743 82.5544 128 82.5544C153.257 82.5544 173.889 103.228 173.889 128.178C173.889 153.129 153.257 173.802 128 173.802ZM128 92.5346C108.435 92.5346 92.4269 108.574 92.4269 127.822C92.4269 147.069 108.435 163.109 128 163.109C147.565 163.109 163.573 147.069 163.573 127.822C163.573 108.574 147.565 92.5346 128 92.5346Z" fill="white"/>
<path opacity="0.4" d="M128 195.901C90.6482 195.901 60.0554 165.604 60.0554 128.178C60.0554 90.7525 90.6482 60.4554 128 60.4554C165.352 60.4554 195.945 90.7525 195.945 128.178C195.945 165.604 165.352 195.901 128 195.901ZM128 70.4356C96.3399 70.4356 70.3716 96.099 70.3716 127.822C70.3716 159.545 96.3399 185.208 128 185.208C159.66 185.208 185.628 159.545 185.628 127.822C185.628 96.099 159.66 70.4356 128 70.4356Z" fill="white"/>
<path opacity="0.2" d="M128 218C78.1976 218 38 177.723 38 128.178C38 78.6337 78.5534 38 128 38C177.802 38 218 78.2772 218 127.822C218 177.366 177.802 218 128 218ZM128 48.3366C84.2451 48.3366 48.3162 83.9802 48.3162 127.822C48.3162 171.663 83.8893 207.307 128 207.307C172.111 207.663 207.684 172.02 207.684 127.822C207.684 83.6238 172.111 48.3366 128 48.3366Z" fill="white"/>
</svg>

<svg xmlns="http://www.w3.org/2000/svg" width="256" height="256" fill="none"><rect width="256" height="256" fill="#F25700" rx="60"/><path fill="#fff" d="M128 151.703c-13.162 0-23.478-10.693-23.478-23.525s10.672-23.525 23.478-23.525c13.162 0 23.478 10.694 23.478 23.525 0 12.832-10.316 23.525-23.478 23.525m0-37.069c-7.47 0-13.162 6.059-13.162 13.188 0 7.128 6.047 13.188 13.162 13.188 7.47 0 13.162-6.06 13.162-13.188S135.47 114.634 128 114.634" opacity=".8"/><path fill="#fff" d="M128 173.802c-25.257 0-45.89-20.673-45.89-45.624 0-24.95 20.633-45.624 45.89-45.624s45.889 20.674 45.889 45.624-20.632 45.624-45.889 45.624m0-81.267c-19.565 0-35.573 16.039-35.573 35.287s16.008 35.287 35.573 35.287 35.573-16.04 35.573-35.287c0-19.248-16.008-35.287-35.573-35.287" opacity=".6"/><path fill="#fff" d="M128 195.901c-37.352 0-67.945-30.297-67.945-67.723 0-37.425 30.593-67.723 67.945-67.723s67.945 30.298 67.945 67.723c0 37.426-30.593 67.723-67.945 67.723m0-125.465c-31.66 0-57.628 25.663-57.628 57.386S96.34 185.208 128 185.208s57.628-25.663 57.628-57.386S159.66 70.436 128 70.436" opacity=".4"/><path fill="#fff" d="M128 218c-49.802 0-90-40.277-90-89.822C38 78.634 78.553 38 128 38c49.802 0 90 40.277 90 89.822C218 177.366 177.802 218 128 218m0-169.663c-43.755 0-79.684 35.643-79.684 79.485S83.89 207.307 128 207.307c44.111.356 79.684-35.287 79.684-79.485S172.111 48.337 128 48.337" opacity=".2"/></svg>
